icon-themes/sifr_svg/sfx2/res/symphony/sidebar-style-small.svg

<svg viewBox="0 0 16 16" xmlns="http://www.w3.org/2000/svg"><path d="m2 0c-.554 0-1 .446-1 1v2c0 .5769146.4225603 1 1 1h1v-1c0-.5522847.4477153-1 1-1h2v7.5332031l3 1.5996089v-9.132812h2c.552285 0 1 .3 1 1v1h1c.516607 0 1-.3 1-1v-2c0-.554-.446-1-1-1zm-2 8v8h15zm2 3 5 3h-5z" fill="#555753"/></svg>

<svg xmlns="http://www.w3.org/2000/svg" viewBox="0 0 16 16">
  <path
     style="fill:#555753"
     d="M 2,0 C 1.446,0 1,0.446 1,1 V 3 C 1,3.5769146 1.4225603,4 2,4 H 3 V 3 C 3,2.4477153 3.4477153,2 4,2 H 6 V 9.5332031 L 9,11.132812 V 2 h 2 c 0.552285,0 1,0.3 1,1 v 1 h 1 c 0.516607,0 1,-0.3 1,-1 V 1 C 14,0.446 13.554,0 13,0 Z M 0,8 v 8 h 15 z m 2,3 5,3 H 2 Z"
     />
</svg>
